X:15001
T:Off to California
R:Hornpipe
C:Trad.
O:Ireland
M:4/4
L:1/8
Q:1/4=120
K:G
(3DEF|"G"GFGB "D"AGED|"G"GBdg "C"e2 (3def|"G"gfgd "C"edBG|"D"ABAG "C"E2 (3DEF|
"G"GFGB "D"AGED|"G"GBdg "C"e2 (3def|"G"gfgd "C"edBG|"D"ABAF "G"G2:|
|:(3def|"D"gfeg "G"fedf|"Em"edef edBd|"Em"gfgd "D"edBG|"D"ABAG "C"E2 (3DEF|
"G"(3GAG BG "D"AGED|"G"GBdg "C"e2 (3def|"G"gfgd "C"edBG|"D"AADE "G"G2:|

